!!!COM: Beethoven, Ludwig van
!!!CDT: 1770///-1827///
!!!OTL: Piano Sonata no. 1 in F minor
!!!ODT: 1794///-1795///
!!!ODE: Joseph Haydn
!!!OMD: Allegro
!!!OPS: 2
!!!ONM: 1
!!!OMV: 1
!!!AGN: Sonata Form
**kern	**dynam	**kern	**dynam
*Ipiano	*Ipiano	*Ipiano	*Ipiano
*>[A,A,B,B]	*>[A,A,B,B]	*>[A,A,B,B]	*>[A,A,B,B]
*>norep[A,B]	*>norep[A,B]	*>norep[A,B]	*>norep[A,B]
*>A	*>A	*>A	*>A
*clefF4	*clefF4	*clefG2	*clefG2
*k[b-e-a-d-]	*k[b-e-a-d-]	*k[b-e-a-d-]	*k[b-e-a-d-]
*f:	*f:	*f:	*f:
*M2/2	*M2/2	*M2/2	*M2/2
*MM240	*MM240	*MM240	*MM240
!	!	!	!LO:DY:X=-22:Y=30
4r	.	(4c'/	p
=1	=1	=1	=1
1r	.	4f'/	.
.	.	4a-'/	.
.	.	4cc'\	.
.	.	4ff'\)	.
=2	=2	=2	=2
4r	.	(4.aa-\	.
!	!LO:DY:X=-20:z=5	!	!
4F\ 4A-\ 4c\	p	.	.
.	.	24gg\LL	.
.	.	24ff\	.
.	.	24ee\JJ	.
4F\ 4A-\ 4c\	.	4ff'\)	.
4F\ 4A-\ 4c\	.	4r	.
=3	=3	=3	=3
4E\ 4G\ 4B-\ 4c\	.	4g'/	.
4r	.	4cc'\	.
2r	.	4ee'\	.
.	.	4gg'\	.
=4	=4	=4	=4
4r	.	(4.bb-\	.
4E\ 4G\ 4B-\ 4c\	.	.	.
.	.	24aa-\LL	.
.	.	24gg\	.
.	.	24ff\JJ	.
4E\ 4G\ 4B-\ 4c\	.	4gg'\)	.
4E\ 4G\ 4B-\ 4c\	.	4r	.
!!LO:LB:g=dukas
!!LO:LB:g=z16
=5	=5	=5	=5
.	.	(cc8q/	.
!	!	!LO:DY:X=-20	!
4r	.	(4.aa-z\)	.
4F\ 4A-\ 4c\	.	.	.
.	.	24gg\LL	.
.	.	24ff\	.
.	.	24ee\JJ	.
4F\ 4A-\ 4c\	.	4ff'\)	.
4F\ 4A-\ 4c\	.	4r	.
=6	=6	=6	=6
.	.	(cc8q/	.
!	!	!LO:DY:X=-20	!LO:HP:X=10:Y=25
4r	.	(4.bb-z\)	<
4G\ 4B-\ 4e\	.	.	(
.	.	24aa-\LL	(
.	.	24gg\	(
.	.	24ff\JJ	(
!	!	!	!LO:HPZ:X=-30
4G\ 4B-\ 4e\	.	4gg'\)	[
4G\ 4B-\ 4e\	.	4r	.
=7	=7	=7	=7
!	!	!	!LO:DY:Y=30
4r	ffyy	2cc\: 2ff\: 2aa-\: 2ccc\:	ff
4A-\ 4c\ 4f\	.	.	.
!	!	!	!LO:HP:Y=25
4r	.	(8bb-\L	>
.	.	8aa-\	)
4B-\ 4d-\ 4g\	.	8gg\	)
.	.	8ff\J)	]
=8	=8	=8	=8
.	.	(16eenXq/LL	.
.	.	16ffq/	.
.	.	16ggq/JJ	.
!	!	!	!LO:DY:X=-10
4r	.	(4ff\)	p
4c\ 4g\	.	4eenX\)	.
4r;	.	4r;	r
!	!LO:DY:X=-25:Y=20	!	!
4GG'/	p	4r	.
=9	=9	=9	=9
4C'\	.	1r	.
4E-X'\	.	.	.
4G'\	.	.	.
4c'\	.	.	.
!!LO:LB:g=dukas
!!LO:LB:g=z16
=10	=10	=10	=10
(4.e-\	.	1r	.
24d\LL	.	.	.
24c\	.	.	.
24B\JJ	.	.	.
4c'\)	.	.	.
4c'\	.	.	.
=11	=11	=11	=11
*	*	*^	*
1c 1f	.	4r	[1a-	.
.	.	8r	.	.
.	.	(24ee-/LL	.	.
.	.	24dd-X/	.	.
.	.	24cc/JJ)	.	.
!	!	!LO:SC:b	!	!
.	.	4dd-'/	.	.
!	!	!LO:SC:b	!	!
.	.	4dd-'/	.	.
=12	=12	=12	=12	=12
1B- 1f	.	[1dd-	4.a-\]	.
.	.	.	(24b-\LL	.
.	.	.	24a-\	.
.	.	.	24g\JJ)	.
!	!	!	!LO:SC:a	!
.	.	.	4a-'\	.
!	!	!	!LO:SC:a	!
.	.	.	4a-'\	.
=13	=13	=13	=13	=13
1B- 1e-	.	4.dd-/]	1g	.
.	.	(24ee-/LL	.	.
.	.	24dd-/	.	.
.	.	24cc/JJ)	.	.
!	!	!LO:SC:b	!	!
.	.	4dd-'/	.	.
!	!	!LO:SC:b	!	!
.	.	4dd-'/	.	.
=14	=14	=14	=14	=14
1A- 1e-	.	4r	1a-	.
.	.	8r	.	.
.	.	(24dd-/LL	.	.
.	.	24cc/	.	.
.	.	24b/JJ	.	.
!	!	!LO:SC:b	!	!
.	.	4cc'/)	.	.
!	!	!LO:SC:b	!	!
.	.	4cc'/	.	.
!!LO:LB:g=dukas
=15	=15	=15	=15	=15
!	!	!	!	!LO:HP:X=-10:Y=30
2d-\	.	(4cc/	1f	<
!	!	!	!	!LO:HPZ:X=10:Y=30
!	!	!	!	!LO:HP:X=20:Y=30
.	.	2b-/	.	[ >
2d\	.	.	.	)
.	.	4a-/)	.	]
*	*	*v	*v	*
!!LO:LB:g=z16
=16	=16	=16	=16
4e-\	.	4g'/	.
4r	.	(4ee-\	.
4r	.	4dd-\)	.
4c\ (4e-\	.	[4cc\	.
=17	=17	=17	=17
!	!	!	!LO:HP:X=-10:Y=30
2d-\ 2f\)	.	(4cc\]	<
!	!	!	!LO:HPZ:X=10:Y=30
!	!	!	!LO:HP:X=20:Y=30
.	.	2b-\	[ >
2d\ 2f\	.	.	)
.	.	4a-\	]
=18	=18	=18	=18
4e-\	.	4g/)	.
4r	.	(4e-/ 4ee-/	f
4r	.	4d-X/ 4dd-X/	.
4C\ (4E-\	.	[4c/) [4cc/	.
=19	=19	=19	=19
2D-\ 2F\)	.	(4c/] 4cc/]	.
.	.	2B-/ 2b-/	.
2D\ 2F\	.	.	.
.	.	4A-/ 4a-/	.
=20	=20	=20	=20
8E-\L	.	4G/) 4g/	.
8e-\	.	.	.
8E-\	.	4r	.
8e-\J	.	.	.
8E-\L	.	4r	.
8e-\	.	.	.
!	!	!	!LO:DY:y=-7
8E-\	.	(4ff-\	p
8e-\J	.	.	.
!!LO:LB:g=dukas
=21	=21	=21	=21
8E-\L	.	4ee-\	.
8e-\	.	.	.
8E-\	.	4dd-\	.
8e-\J	.	.	.
8E-\L	.	4b-\	.
8e-\	.	.	.
8E-\	.	4g/)	.
8e-\J	.	.	.
!!LO:LB:g=z16
=22	=22	=22	=22
*^	*	*	*
!	!	!	!LO:DY:X=-12:y=2	!
(2d-zy/	4E-\	.	(4.f-z/	.
.	4E-\	.	.	.
.	.	.	8e-/	.
4c/)	8E-\L	.	4a-'/)	.
.	8e-\	.	.	.
4ryy	8E-\	.	(4ff-X\	.
.	8e-\J	.	.	.
*v	*v	*	*	*
=23	=23	=23	=23
8E-\L	.	4ee-\	.
8e-\	.	.	.
8E-\	.	4dd-\	.
8e-\J	.	.	.
8E-\L	.	4b-\	.
8e-\	.	.	.
8E-\	.	4g/)	.
8e-\J	.	.	.
=24	=24	=24	=24
*^	*	*	*
!	!	!	!LO:DY:X=-15	!
(2d-zy/	4E-\	.	(4.f-z/	.
.	4E-\	.	.	.
.	.	.	8e-/	.
4c/)	8E-\L	.	4a-'/)	.
.	8e-\	.	.	.
4ryy	8E-\	.	(4ff-X\	.
.	8e-\J	.	.	.
*v	*v	*	*	*
=25	=25	=25	=25
8E-\L	.	4ee-\	.
8e-\	.	.	.
8E-\	.	4dd-\	.
8e-\J	.	.	.
8d-\L	.	4b-\	.
8e-\	.	.	.
8d-\	.	4g/)	.
8e-\J	.	.	.
!!LO:LB:g=dukas
=26	=26	=26	=26
8c\L	.	8r	.
8e-\	.	(8g/L	.
8c\	.	8b-/	.
8e-\J	.	8a-/J)	.
8G\L	.	8r	.
8e-\	.	(8a/L	.
8G\	.	8cc/	.
8e-\J	.	8b-/J)	.
!!LO:LB:g=z16
=27	=27	=27	=27
8A-\L	.	8r	.
8e-\	.	(8b\L	.
8A-\	.	8dd-\	.
8e-\J	.	8cc\J)	.
8F\L	.	8r	.
!	!	!	!LO:HP:X=-20:Y=30
8d\	.	(8dd\L	<
!	!	!	!LO:HPZ:X=-5
!	!	!	!LO:HP:Y=30
8A-\	.	8aa-\	[ >
8d\J	.	8dd\J)	]
=28	=28	=28	=28
8E-\L	.	4ee-\	.
8e-\	.	.	.
8G\	.	4r	.
8e-\J	.	.	.
8F\L	.	8r	.
!	!	!	!LO:HP:X=-20:Y=30
8d\	.	(8dd\L	<
!	!	!	!LO:HPZ:X=-5
!	!	!	!LO:HP:Y=30
8A-\	.	8aa-\	[ >
8d\J	.	8dd\J)	]
=29	=29	=29	=29
8E-\L	.	4ee-\	.
8e-\	.	.	.
8G\	.	4r	.
8e-\J	.	.	.
8D-X\L	.	8r	.
!	!	!	!LO:HP:X=-20:Y=30
8B-\	.	(8gg\L	<
!	!	!	!LO:HPZ:X=-5
!	!	!	!LO:HP:Y=30
8F-\	.	8fff-\	[ >
8B-\J	.	8gg\J)	]
=30	=30	=30	=30
8C\L	.	4aa-\	.
8A-\	.	.	.
8E-\	.	4r	.
8A-\J	.	.	.
8D-\L	.	8r	.
!	!	!	!LO:HP:X=-20:Y=30
8B-\	.	(8gg\L	<
!	!	!	!LO:HPZ:X=-5
!	!	!	!LO:HP:Y=30
8F-\	.	8fff-\	[ >
8B-\J	.	8gg\J)	]
!!LO:LB:g=dukas
=31	=31	=31	=31
8C\L	.	8r	.
!	!	!	!LO:HP:Y=30
8A-\	.	(8gg\L	<
8E-\	.	8bb-\	(
8A-\J	.	8aa-\J)	(
8GG\L	.	8r	(
8G\	.	(8aa\L	(
8E-\	.	8ccc\	(
8G\J	.	8bb-\J)	(
!!LO:LB:gg=z16
=32	=32	=32	=32
8AA-\L	.	8r	(
8A-\	.	(8bb\L	(
8E-\	.	8ddd-\	(
8A-\J	.	8ccc\J)	(
8BB-\L	.	8r	(
8B-\	.	(8ccc\L	(
8E-\	.	8eee-\	(
8B-\J	.	8ddd-\J)	[
=33	=33	=33	=33
4C\	fyy	8r	.
.	.	(8ddd\L	f
!LO:DY:X=-10	!	!	!
2E-z\	.	8fff\	.
.	.	8eee-\J	.
.	.	8ddd-\L	.
.	.	8ccc\	.
4A-\	.	8bb-\	.
.	.	8aa-\J	.
=34	=34	=34	=34
4D-\	.	8gg\L	.
.	.	8ff\	.
!LO:DY:X=-10	!	!	!
2Fz\	.	8ee-\	.
.	.	8dd-\J	.
.	.	8cc\L	.
.	.	8b-\	.
4B-\	.	8a-\	.
.	.	8g\J)	.
=35	=35	=35	=35
4E-\	.	(8f/L	p
.	.	8e-/	.
!LO:DY:X=-10	!	!	!
2A-z\	.	8d/	.
.	.	8e-/J	.
.	.	8d/L	.
.	.	8e-/	.
4c\	.	8d/	.
.	.	8e-/J	.
!!LO:LB:g=dukas
=36	=36	=36	=36
(4d-X\	.	8dn/L	.
.	.	8e-/	.
4B-\	.	8f/	.
.	.	8e-/J	.
4G\	.	8d/L	.
.	.	8e-/	.
4D-\)	.	8f/	.
.	.	8e-/J)	.
!!LO:PB:g=z16
=37	=37	=37	=37
4CC/	.	8r	.
.	.	(8aa-\L	f
2EE-z/	.	8fff\	.
.	.	8eee-\J	.
.	.	8ddd-\L	.
.	.	8ccc\	.
4AA-/	.	8bb-\	.
.	.	8aa-\J	.
=38	=38	=38	=38
4DD-/	.	8gg\L	.
.	.	8ff\	.
2FFz/	.	8ee-\	.
.	.	8dd-\J	.
.	.	8cc\L	.
.	.	8b-\	.
4BB-/	.	8a-\	.
.	.	8g\J	.
=39	=39	=39	=39
!	!	!	!LO:DY:Y=25
4EE-/	.	8f/L	p
.	.	8e-/	.
2AA-z/	.	8d-/	.
.	.	8c/J	.
*	*	*clefF4	*clefF4
.	.	8B-\L	.
.	.	8A-\	.
4C/	.	8G\	.
.	.	8F\J	.
=40	=40	=40	=40
(4D-/	.	8E-\L	.
.	.	8F\	.
4BB-/	.	8G\	.
.	.	8A-\J	.
4GG/	.	8B-\L	.
.	.	8c\	.
4EE-/)	.	8d-\	.
.	.	8B-\J	.
!!LO:LB:g=dukas
=41	=41	=41	=41
4AA-/	.	4A-\)	.
*	*	*clefG2	*clefG2
4A-\	.	4r	.
.	.	(d8qnX/	.
!	!	!LO:TX:i:t=con espressione:Z=15:X=-30	!
!	!	!	!LO:DY:X=30
4r	.	(4.cc-\)	>
4D'\ 4F'\ 4A-'\ 4c-'\	pyy	.	)
.	.	8b-\)	]
!!LO:LB:gg=z16
=42	=42	=42	=42
4r	.	2a-/	.
4E-'\ 4A-'\ 4cnX'\	.	.	.
!	!	!LO:S:b	!
4r	.	(4.g/	.
4E-'\ 4B-'\ 4d-'\	.	.	.
.	.	8ee-\)	.
=43	=43	=43	=43
4r	.	(4ee-z\	.
4A-'\ 4c'\	.	4a-\)	.
.	.	(d8q/	.
!	!	!	!LO:DY:X=30
4r	.	(4.cc-\)	>
4D'\ 4F'\ 4A-'\ 4c-'\	.	.	)
.	.	8b-\)	]
=44	=44	=44	=44
4r	.	2a-/	.
4E-'\ 4A-'\ 4cnX'\	.	.	.
!	!	!LO:S:b	!
4r	.	(4.g/	.
4E-'\ 4B-'\ 4d-'\	.	.	.
.	.	8ee-\)	.
=45	=45	=45	=45
4r	.	(4ee-z\	.
4A-'\ 4c'\	.	4a-\)	.
*clefG2	*clefG2	*	*
.	.	(ddnX8q/	.
!	!	!	!LO:DY:X=20:Y=25
4r	.	(4.ccc-\)	>
4d'/ 4f'/ 4a-'/ 4cc-'/	.	.	)
.	.	8bb-\)	]
=46	=46	=46	=46
4r	.	2aa-\	.
4e-'/ 4a-'/ 4ccnX'/	.	.	.
4r	.	(4.gg\	.
4e-'/ 4b-'/ 4dd-'/	.	.	.
.	.	8eee-\)	.
=47	=47	=47	=47
!	!	!	!LO:DY:Y=40
!	!	!	!LO:HP:X=30:Y=40
1A-/ 1B-/ 1d-/ 1e-/ 1g/	.	1dd-\ 1gg\ 1eee-\	ff>]
=48	=48	=48	=48
!	!	!	!LO:DY:Y=40
4A-/ 4c/ 4e-/ 4a-/	.	4cc\ 4ee-\ 4aa-\	p
4r	.	4r	r
4r	.	4r	r
*clefF4	*	*	*
!!LO:LB:g=z16
=:|!|:	=:|!|:	=:|!|:	=:|!|:
*>B	*>B	*>B	*>B
!!LO:LB:g=dukas
4r	.	4e-'/	p
=49	=49	=49	=49
1r	.	4a-'\	.
.	.	4cc'\	.
.	.	4ee-'\	.
.	.	4aa-'\	.
*clefF4	*clefF4	*	*
=50	=50	=50	=50
4r	.	(4.ccc\	.
4A-\ 4c\ 4e-\	pyy	.	.
.	.	24bb-\LL	.
.	.	24aa-\	.
.	.	24gg\JJ	.
4A-\ 4c\ 4e-\	.	4aa-'\)	.
4A-\ 4c\ 4e-\	.	4r	.
=51	=51	=51	=51
.	.	(dd-8q/	.
4r	.	(4.ddd-\)	.
4G\ 4B-\ 4d-\ 4e-\	.	.	.
.	.	24ccc\LL	.
.	.	24bb-\	.
.	.	24aa\JJ	.
4G\ 4B-\ 4d-\ 4e-\	.	4bb-'\)	.
4G\ 4B-\ 4d-\ 4e-\	.	4r	.
=52	=52	=52	=52
1r	.	4b-'\	.
.	.	4dd-'\	.
.	.	4gg'\	.
.	.	4bb-'\	.
=53	=53	=53	=53
.	.	(dd-8q/	.
4r	.	(4.ddd-\)	.
4G\ 4B-\ 4d-\ 4e\	.	.	.
.	.	24ccc\LL	.
.	.	24bb-\	.
.	.	24aa\JJ	.
4G\ 4B-\ 4d-\ 4e\	.	4bb-'\)	.
4G\ 4B-\ 4d-\ 4e\	.	4r	.
!!LO:LB:g=dukas
!!LO:LB:gg=z16
=54	=54	=54	=54
.	.	(dd-8q/	.
!	!	!	!LO:HP:Y=30
4r	.	(4.ddd-\)	<
4G-\ 4B-\ 4d-\ 4e\	.	.	(
.	.	24ccc\LL	(
.	.	24bb-\	(
.	.	24aa\JJ	(
!	!	!	!LO:HPZ:X=-30
4G-\ 4B-\ 4d-\ 4e\	.	4bb-'\)	[
4G-\ 4B-\ 4d-\ 4e\	.	4r	.
=55	=55	=55	=55
!	!	!	!LO:DY:X=-10
8F\L	.	4aa\	fp
8f\	.	.	.
8F\	.	4r	.
8f\J	.	.	.
8F\L	.	4r	.
8f\	.	.	.
!	!	!	!LO:DY:X=-10:y=-10
8F\	.	(4gg-\	p
8f\J	.	.	.
=56	=56	=56	=56
8F\L	.	4ff\	.
8f\	.	.	.
8F\	.	4ee-\	.
8f\J	.	.	.
8F\L	.	4cc\	.
8f\	.	.	.
8F\	.	4a\)	.
8f\J	.	.	.
=57	=57	=57	=57
*^	*	*	*
!	!	!	!LO:DY:X=-15:y=2	!
(2e-zy/	4F\	.	(4.g-z/	.
.	4F\	.	.	.
.	.	.	8f/	.
4d-/)	8F\L	.	4b-'/)	.
.	8f\	.	.	.
4ryy	8F\	.	(4gg-X\	.
.	8f\J	.	.	.
*v	*v	*	*	*
=58	=58	=58	=58
8F\L	.	4ff\	.
8f\	.	.	.
8F\	.	4ee-\	.
8f\J	.	.	.
8F\L	.	4cc\	.
8f\	.	.	.
8F\	.	4a\)	.
8f\J	.	.	.
!!LO:LB:g=dukas
=59	=59	=59	=59
*^	*	*	*
!	!	!	!LO:DY:X=-15:y=2	!
(2e-zy/	4F\	.	(4.g-z/	.
.	4F\	.	.	.
.	.	.	8f/	.
4d-/)	8F\L	.	4b-'/)	.
.	8f\	.	.	.
4ryy	8F\	.	(4gg-X\	.
.	8f\J	.	.	.
*v	*v	*	*	*
!!LO:LB:gg=z16
=60	=60	=60	=60
8F\L	.	4ff\	.
8f\	.	.	.
8F\	.	4ee-\	.
8f\J	.	.	.
8e-\L	.	4cc\	.
8f\	.	.	.
8e-\	.	4a\)	.
8f\J	.	.	.
=61	=61	=61	=61
8d-\L	.	8r	.
!	!	!	!LO:HP:Y=30
8f\	.	(8a\L	<
8d-\	.	8cc\	(
8f\J	.	8b-\J)	(
8c\L	.	8r	(
8f\	.	(8b-\L	(
8c\	.	8dd-\	(
8f\J	.	8cc\J)	(
=62	=62	=62	=62
8B-\L	.	8r	(
8f\	.	(8cc\L	(
8B-\	.	8ee-\	(
8f\J	.	8dd-\J)	(
8A-\L	.	8r	(
8f#\	.	(8b\L	(
8A-\	.	8dd\	(
8f#\J	.	8cc\J)	[
=63	=63	=63	=63
!	!	!	!LO:DY:X=-12
8G\L	.	4b\	fp
8g\	.	.	.
8G\	.	4r	.
8g\J	.	.	.
8G\L	.	4r	.
8g\	.	.	.
8G\	.	(4aa-\	.
8g\J	.	.	.
!!LO:PB:g=dukas
=64	=64	=64	=64
8G\L	.	4gg\	.
8g\	.	.	.
8G\	.	4ff\	.
8g\J	.	.	.
8G\L	.	4dd\	.
8g\	.	.	.
8G\	.	4b\)	.
8g\J	.	.	.
!!LO:LB:gg=z16
=65	=65	=65	=65
*^	*	*	*
!	!	!	!LO:DY:X=-12	!
(2fzy/	4G\	.	(4.a-z/	.
.	4G\	.	.	.
.	.	.	8g/	.
4e-/)	8G\L	.	4cc'/)	.
.	8g\	.	.	.
4ryy	8G\	.	(4aa-\	.
.	8g\J	.	.	.
*v	*v	*	*	*
=66	=66	=66	=66
8G\L	.	4gg\	.
8g\	.	.	.
8G\	.	4ff\	.
8g\J	.	.	.
8G\L	.	4dd\	.
8g\	.	.	.
8G\	.	4b\)	.
8g\J	.	.	.
=67	=67	=67	=67
*^	*	*	*
!	!	!	!LO:DY:X=-12	!
(2fzy/	4G\	.	(4.a-z/	.
.	4G\	.	.	.
.	.	.	8g/	.
4e-/)	4G\	.	4cc'/)	.
!LO:S:a	!	!	!	!
(4A-\	4ryy	.	8f/L	.
.	.	.	8d/J	.
*v	*v	*	*	*
=68	=68	=68	=68
4G\	.	8f/L	.
.	.	8d/	.
4F\	.	8f/	.
.	.	8d/J	.
4D\	.	8f/L	.
.	.	8d/	.
4BB/)	.	8f/	.
.	.	8d/J	.
!!LO:LB:g=dukas
=69	=69	=69	=69
*	*	*^	*
!LO:DY:X=-10:y=2	!	!	!	!
(4.AA-z/	.	4r	8f\L	.
.	.	.	8d\	.
.	.	(4b/	8f\	.
8GG/	.	.	8d\J	.
4C'/)	.	4cc/)	8e-\L	.
.	.	.	8c\	.
(4G-\	.	4r	8e-\	.
.	.	.	8c\J	.
!!LO:LB:gg=z16
=70	=70	=70	=70	=70
4F\	.	1r	8e-\L	.
.	.	.	8c\	.
4E-\	.	.	8e-\	.
.	.	.	8c\J	.
4C/	.	.	8e-\L	.
.	.	.	8c\	.
4AA/)	.	.	8e-\	.
.	.	.	8c\J	.
=71	=71	=71	=71	=71
!LO:DY:X=-10:y=2	!	!	!	!
(4.GG-z/	.	4r	8e-\L	.
.	.	.	8c\	.
.	.	(4a/	8e-\	.
8FF/	.	.	8c\J	.
4BB-'/)	.	4b-/)	8d-\L	.
.	.	.	8B-\	.
(4F-\	.	4r	8d-\	.
.	.	.	8B-\J	.
=72	=72	=72	=72	=72
4E-\	.	1r	8d-\L	.
.	.	.	8B-\	.
4D-\	.	.	8d-\	.
.	.	.	8B-\J	.
4BB-/	.	.	8d-\L	.
.	.	.	8B-\	.
4GG/)	.	.	8d-\	.
.	.	.	8B-\J	.
=73	=73	=73	=73	=73
(4FF-/	.	2r	8d-\L	.
.	.	.	8B-\	.
2EE-/)	.	.	8d-\	.
.	.	.	8B-\J	.
!	!	!LO:DY:Z=15	!	!
.	.	2gz/	8d-\L	.
.	.	.	8B-\	.
!LO:DY:X=-10	!	!	!	!
[4E-z\	.	.	8d-\	.
.	.	.	8B-\J	.
!!LO:LB:g=dukas
=74	=74	=74	=74	=74
4E-\]	.	2r	8c\L	.
.	.	.	8A-\	.
2C\	.	.	8e-\	.
.	.	.	8A-\J	.
!	!	!LO:DY:Z=20	!	!
.	.	2a-z/	8e-\L	.
.	.	.	8A-\	.
[4CC/	.	.	8e-\	.
.	.	.	8A-\J	.
!!LO:PB:gg=z16
=75	=75	=75	=75	=75
4CC/]	.	2r	8d-\L	.
.	.	.	8A-\	.
2DD-/	.	.	8d-\	.
.	.	.	8A-\J	.
!	!	!LO:DY:Z=10	!	!
.	.	2fz/	8d-\L	.
.	.	.	8A-\	.
[4D-z/	.	.	8d-\	.
.	.	.	8A-\J	.
=76	=76	=76	=76	=76
4D-/]	.	2r	8d-\L	.
.	.	.	8G\	.
2BB-/	.	.	8d-\	.
.	.	.	8G\J	.
!	!	!LO:DY:Z=15	!	!
.	.	2gz/	8d-\L	.
.	.	.	8G\	.
[4BBB-/	.	.	8d-\	.
.	.	.	8G\J	.
=77	=77	=77	=77	=77
4BBB-/]	.	2r	8c\L	.
.	.	.	8G\	.
2CC/	.	.	8c\	.
.	.	.	8G\J	.
!	!	!LO:DY:Z=10	!	!
.	.	2enz/	8c\L	.
.	.	.	8G\	.
!LO:DY:X=-8	!	!	!	!
[4Cz/	.	.	8c\	.
.	.	.	8G\J	.
=78	=78	=78	=78	=78
4C/]	.	2r	8A-\L	.
.	.	.	8F\	.
2AA-/	.	.	8c\	.
.	.	.	8F\J	.
!	!	!LO:DY:Z=10	!	!
.	.	2fz/	8c\L	.
.	.	.	8F\	.
4AAA-/	.	.	8c\	.
.	.	.	8F\J	.
!!LO:LB:g=dukas
=79	=79	=79	=79	=79
4r	.	2r	8d-\L	.
.	.	.	8F\	.
(2BBB-/	.	.	8d-\	.
.	.	.	8F\J	.
!	!	!LO:DY:Z=10	!	!
.	.	2fz/	8d-\L	.
.	.	.	8F\	.
4BB-/)	.	.	8d-\	.
.	.	.	8F\J	.
*	*	*v	*v	*
!!LO:LB:gg=z16
=80	=80	=80	=80
4r	.	8d/L	.
.	.	8F/	.
(2BBBn/	.	8A-/ 8d/ 8f/	.
.	.	8F/J	.
.	.	8A-/ 8d/ 8f/L	.
.	.	8F/	.
4BBnX/)	.	8A-/ 8d/ 8f/	.
.	.	8F/J	.
=81	=81	=81	=81
8CC/L	.	4G/ 4c/ 4e/	.
8C/	pyy	.	.
8E/	.	4r	.
8C/J	.	.	.
8E/L	.	4r	.
8C/	.	.	.
8E/	.	(4cc\	.
8C/J	.	.	.
=82	=82	=82	=82
8F\L	.	4a-'\)	.
8C\	.	.	.
8F\	.	4r	.
8C\J	.	.	.
8F\L	.	4r	.
8C\	.	.	.
8A-\	.	(4ff\	.
8C\J	.	.	.
=83	=83	=83	=83
8G\L	.	4ee'\)	.
8C\	.	.	.
8G\	.	4r	.
8C\J	.	.	.
8G\L	.	4r	.
8C\	.	.	.
8B-\	.	(4ccc\	.
8C\J	.	.	.
!!LO:LB:g=dukas
=84	=84	=84	=84
8A-\L	.	4ff'\)	.
8C\	.	.	.
8c\	.	4r	.
8C\J	.	.	.
8B\L	.	2ff\z (2fff\z	.
8C\	.	.	.
8d\	.	.	.
8C\J	.	.	.
=85	=85	=85	=85
8c\L	.	4ee\ 4eee\)	.
8C\	.	.	.
8E\	.	4r	.
8C\J	.	.	.
8E\L	.	4r	.
8C\	.	.	.
8E\	.	(4cct\	.
8C\J	.	.	.
.	.	16bnqLL/	.
.	.	16ccqJJ/	.
!!LO:LB:gg=z16
=86	=86	=86	=86
8F\L	.	4a-'/)	.
8C\	.	.	.
8F\	.	4a-'/	.
8C\J	.	.	.
8F\L	.	4r	.
8C\	.	.	.
8A-\	.	(4ffT\	.
8C\J	.	.	.
.	.	16eenqLL/	.
.	.	16ffqJJ/	.
=87	=87	=87	=87
8G\L	.	4een'\)	.
8C\	.	.	.
8G\	.	4ee'\	.
8C\J	.	.	.
8G\L	.	4r	.
8C\	.	.	.
8B-\	.	(4ccct\	.
8C\J	.	.	.
.	.	16bbnqLL/	.
.	.	16cccqJJ/	.
=88	=88	=88	=88
8A-\L	.	4ff'\)	.
8C\	.	.	.
8c\	.	4ff'\	.
8C\J	.	.	.
8B\L	.	4r	.
8C\	.	.	.
!	!	!LO:DY:X=-10:y=-5	!
8d\	.	4ffz\ (4fffz\	.
8C\J	.	.	.
!!LO:LB:g=dukas
=89	=89	=89	=89
8c\L	.	4ee'\ 4eee'\)	.
8C\	.	.	.
8c\	.	4ee'\ 4eee'\	.
8C\J	.	.	.
8B-X\L	.	4r	.
8C\	.	.	.
8B-\	.	4dd-X\ (4ddd-X\	.
8C\J	.	.	.
=90	=90	=90	=90
8A-\L	>yy	4cc'\ 4ccc'\)	>X
8C\	)	.	)
8c\	)	4cc'\ 4ccc'\	)
8C\J	)	.	)
8B\L	)	4r	)
8C\	)	.	)
8d\	)	4ff\ (4fff\	)
8C\J	)	.	)
=91	=91	=91	=91
8c\L	)	4ee'\ 4eee'\)	)
8C\	)	.	)
8c\	)	4ee'\ 4eee'\	)
8C\J	)	.	)
8B-X\L	)	4r	)
8C\	)	.	)
8B-\	)	4dd-\ (4ddd-\	)
8C\J	)	.	)
!!LO:LB:gg=z16
=92	=92	=92	=92
8A-\L	)	4cc'\ 4ccc'\)	)
8C\	)	.	)
8c\	)	4cc'\ 4ccc'\	)
8C\J	)	.	)
8B\L	)	4r	)
8C\	)	.	)
8d\	)	4ff\ (4fff\	)
8C\J	]yy	.	]X
=93	=93	=93	=93
!	!	!	!LO:DY:Y=25:X=-10
(4c'\	ppyy	4ee'\ 4eee'\)	pp
4c'\	.	4r	.
4c'\	.	2r	.
4c'\)	.	.	.
!!LO:PB:g=dukas
=94	=94	=94	=94
(4c'\	.	1r	.
4c'\	.	.	.
4c'\	.	.	.
4c'\)	.	.	.
=95	=95	=95	=95
4c'\ (4d-'\	.	4r	.
4c'\ 4d-'\	.	8r	.
!	!	!	!LO:DY:Z=15:X=-20
.	.	(24a-/LL	pp
.	.	24g-/	.
.	.	24f/JJ	.
4c'\ 4d-'\	.	4g-'/)	.
4c'\ 4d-'\)	.	4r	.
=96	=96	=96	=96
4B-'\ (4d-'\	.	4r	.
4B-'\ 4d-'\	.	8r	.
.	.	(24eee-\LL	.
.	.	24ddd-\	.
.	.	24ccc\JJ	.
4B-'\ 4d-'\	.	4ddd-'\)	.
4B-'\ 4d-'\)	.	4r	.
=97	=97	=97	=97
!	!	!	!LO:TX:Y=25
!	!	!	!LO:HP:dash
4B-'\ (4c'\	.	4r	<X
4B-'\ 4c'\	.	8r	(
.	.	(24f/LL	(
.	.	24e/	(
.	.	24d/JJ	(
4B-'\ 4c'\	.	4e'/)	(
4B-'\ 4c'\)	.	4r	(
!!LO:LB:gg=z16
=98	=98	=98	=98
4A-'\ (4c'\	.	4r	(
4A-'\ 4c'\	.	8r	(
.	.	(24ddd-\LL	(
.	.	24ccc\	(
.	.	24bb\JJ	(
4A-'\ 4c'\	.	4ccc'\)	(
4A-'\ 4c'\)	.	4r	(
!!LO:LB:g=dukas
=99	=99	=99	=99
4A-'\ (4B-'\	<yy	4r	(
4A-'\ 4B-'\	(	8r	(
.	(	(24e-/LL	(
.	(	24d/	(
.	(	24c/JJ	(
4A-'\ 4B-'\	(	4d'/)	(
4A-'\ 4B-'\)	(	4r	(
=100	=100	=100	=100
4G'\ 4B-'\ (4e'\	(	4r	(
4G'\ 4B-'\ 4e'\	(	8r	(
.	(	(24ccc\LL	(
.	(	24bb-\	(
.	(	24aa\JJ	(
4G'\ 4B-'\ 4e'\	(	4bb-'\)	(
4G'\ 4B-'\ 4e'\)	[yy	4r	[X
=101	=101	=101	=101
4F\ 4A-\ 4c\	.	4f'/	f
4r	.	4a-'/	.
2r	.	4cc'\	.
.	.	4ff'\	.
=102	=102	=102	=102
4r	.	(4.aa-z\	.
4F\ 4A-\ 4c\	.	.	.
.	.	24gg\LL	.
.	.	24ff\	.
.	.	24ee\JJ	.
4F\ 4A-\ 4c\	.	4ff'\)	.
4F\ 4A-\ 4c\	.	4r	.
!!LO:LB:gg=z16
=103	=103	=103	=103
4E\ 4G\ 4B-\ 4c\	.	4g'/	.
4r	.	4cc'\	.
2r	.	4ee'\	.
.	.	4gg'\	.
!!LO:LB:g=dukas
=104	=104	=104	=104
4r	.	(4.bb-z\	.
4E\ 4G\ 4B-\ 4c\	.	.	.
.	.	24aa-\LL	.
.	.	24gg\	.
.	.	24ff\JJ	.
4E\ 4G\ 4B-\ 4c\	.	4gg'\)	.
4E\ 4G\ 4B-\ 4c\	.	4r	.
=105	=105	=105	=105
.	.	(cc8q/	.
!	!	!LO:DY:X=-10	!
2Fzy\ 2A-zy\ 2czy\	.	(4.aa-z\)	.
.	.	24gg\LL	.
.	.	24ff\	.
.	.	24ee\JJ	.
2r	.	4ff'\)	.
.	.	4r	.
=106	=106	=106	=106
.	.	(cc8q/	.
!	!	!LO:DY:X=-10:z=8	!
2Gzy\ 2B-zy\ 2ezy\	.	(4.bb-z\)	.
.	.	24aa-\LL	.
.	.	24gg\	.
.	.	24ff\JJ	.
2r	.	4gg'\)	.
.	.	4r	.
=107	=107	=107	=107
!	!	!	!LO:DY:z=8:x=4
4A-\ 4c\ 4f\	.	2cc:\ 2ff:\ 2aa-:\ 2ccc:\	ff
4r	.	.	.
!	!	!	!LO:HP:Y=25
4B-\ 4d-\ 4g\	>yy	(8bb-\L	>
.	)	8aa-\	)
4r	)	8gg\	)
.	]yy	8ff\J)	]
!!LO:LB:gg=z16
=108	=108	=108	=108
.	.	(16eeq/LL	.
.	.	16ffq/	.
.	.	16ggq/JJ	.
!	!	!	!LO:DY:X=-20:z=6
4c\ 4g\	.	(4ff\)	p
4r	.	4eenX\)	.
4r;	.	4r;	r
!	!LO:DY:X=-10:Y=15	!	!
4C'/	p	4r	.
!!LO:LB:g=dukas
=109	=109	=109	=109
4F'\	.	1r	.
4A-'\	.	.	.
4c'\	.	.	.
4f'\	.	.	.
*clefG2	*clefG2	*	*
=110	=110	=110	=110
(4.a-/	.	1r	.
24g/LL	.	.	.
24f/	.	.	.
24e/JJ	.	.	.
4f'/)	.	.	.
4f'/	.	.	.
=111	=111	=111	=111
1f 1g-	.	(4.bb-\	.
.	.	24aa-\LL	.
.	.	24gg-\	.
.	.	24ff\JJ	.
.	.	4gg-'\)	.
.	.	4gg-'\	.
=112	=112	=112	=112
*	*	*^	*
1e- 1g-	.	[1gg-	4r	.
.	.	.	8r	.
.	.	.	24dd-X\LL	.
.	.	.	24cc\	.
.	.	.	24b\JJ	.
!	!	!	!LO:SC:a	!
.	.	.	4cc'\	.
!	!	!	!LO:SC:a	!
.	.	.	4cc'\	.
!!LO:PB:gg=z16
=113	=113	=113	=113	=113
1e- 1a	.	4.gg-/]	[1cc	.
.	.	(24gg-/LL	.	.
.	.	24ff/	.	.
.	.	24ee/JJ	.	.
!	!	!LO:SC:b	!	!
.	.	4ff'/)	.	.
!	!	!LO:SC:b	!	!
.	.	4ff'/	.	.
=114	=114	=114	=114	=114
1d- 1f	.	1ff	4.cc\]	.
.	.	.	24cc\LL	.
.	.	.	24b-\	.
.	.	.	24a\JJ	.
!	!	!	!LO:SC:a	!
.	.	.	4b-'\	.
!	!	!	!LO:SC:a	!
.	.	.	4b-'\	.
!!LO:LB:g=dukas
=115	=115	=115	=115	=115
*^	*	*	*	*
(2.f/	[1d\	.	4r	1b	.
.	.	.	8r	.	.
.	.	.	(24gg/LL	.	.
.	.	.	24ff/	.	.
.	.	.	24ee/JJ)	.	.
.	.	.	(4ff/	.	.
4e/)	.	.	4gg/	.	.
*	*	*	*v	*v	*
=116	=116	=116	=116	=116
(4f/	1d\]	.	4aa-\	.
4g/	.	.	4ee\	.
4a-/	.	.	4ff\	.
4f/)	.	.	4b\)	.
=117	=117	=117	=117	=117
!	!	!	!LO:S:a	!LO:HP:y=-5
(4e/	[1c	.	(4cc\	<
4g/	.	.	4ee\	(
4f/	.	.	4ff\	(
4e/	.	.	4gg\	[
=118	=118	=118	=118	=118
!	!	!	!	!LO:HP:y=-5
4f/	2c\]	.	4aa-\	>
4b-/	.	.	4ee\	)
4a-/	2d-X\	.	4ff\	)
4f/)	.	.	4b\	]
*v	*v	*	*	*
*clefF4	*clefF4	*	*
!!LO:LB:gg=z16
=119	=119	=119	=119
8C\L	.	4e/ 4cc/)	.
8c\	.	.	.
8C\	.	4r	.
8c\J	.	.	.
8C\L	.	4r	.
8c\	.	.	.
8C\	.	(4dd-\	p
8c\J	.	.	.
!!LO:LB:g=dukas
=120	=120	=120	=120
8C\L	.	4cc\	.
8c\	.	.	.
8C\	.	4b-\	.
8c\J	.	.	.
8C\L	.	4g/	.
8c\	.	.	.
8C\	.	4e/)	.
8c\J	.	.	.
=121	=121	=121	=121
*^	*	*	*
!	!	!	!LO:DY:X=-12:y=2	!
(2B-zy/	4C\	.	(4.d-z/	.
.	4C\	.	.	.
.	.	.	8c/	.
4A-/)	8C\L	.	4f'/)	.
.	8c\	.	.	.
4ryy	8C\	.	(4ddd-\	.
.	8c\J	.	.	.
*v	*v	*	*	*
=122	=122	=122	=122
8C\L	.	4ccc\	.
8c\	.	.	.
8C\	.	4bb-\	.
8c\J	.	.	.
8C\L	.	4gg\	.
8c\	.	.	.
8C\	.	4ee\)	.
8c\J	.	.	.
=123	=123	=123	=123
*^	*	*	*
!	!	!	!LO:DY:X=-10	!
(2B-zy/	4C\	.	(4.dd-z\	.
.	4C\	.	.	.
.	.	.	8cc\	.
4A-/)	8C\L	.	4ff'\)	.
.	8c\	.	.	.
4ryy	8C\	.	(4ddd-\	.
.	8c\J	.	.	.
*v	*v	*	*	*
=124	=124	=124	=124
8C\L	.	4ccc\	.
8c\	.	.	.
8C\	.	4bb-\	.
8c\J	.	.	.
8B-\L	.	4gg\	.
8c\	.	.	.
8B-\	.	4ee\)	.
8c\J	.	.	.
!!LO:LB:g=dukas
!!LO:LB:gg=z16
=125	=125	=125	=125
8A-\L	.	8r	.
8f\	.	(8ee\L	.
8c\	.	8gg\	.
8f\J	.	8ff\J)	.
8G\L	.	8r	.
8e\	.	(8ff\L	.
8B-\	.	8aa-\	.
8e\J	.	8gg\J)	.
=126	=126	=126	=126
8F\L	.	8r	.
8c\	.	(8gg\L	.
8A-\	.	8bb-\	.
8c\J	.	8aa-\J)	.
8D-\L	.	8r	.
!	!	!	!LO:HP:Y=30:X=-20
8B\	.	(8bb\L	<
!	!	!	!LO:HP:Y=30
8F\	.	8fff\	[ >
8B\J	.	8bb\J)	]
=127	=127	=127	=127
8C\L	.	4ccc\	.
8c\	.	.	.
8E\	.	4r	.
8c\J	.	.	.
8D-\L	.	8r	.
!	!	!	!LO:HP:Y=30:X=-20
8B\	.	(8bb\L	<
!	!	!	!LO:HP:Y=30
8F\	.	8fff\	[ >
8B\J	.	8bb\J)	]
=128	=128	=128	=128
8C\L	.	4ccc\	.
8c\	.	.	.
8E\	.	4r	.
8c\J	.	.	.
8BB-X\L	.	8r	.
!	!	!	!LO:HP:Y=30:X=-20
8G\	.	(8ee\L	<
!	!	!	!LO:HP:Y=30
8D-\	.	8ddd-\	[ >
8G\J	.	8ee\J)	]
=129	=129	=129	=129
8AA-\L	.	4ff\	.
8F\	.	.	.
8C\	.	4r	.
8F\J	.	.	.
8BB-\L	.	8r	.
!	!	!	!LO:HP:Y=30:X=-20
8G\	.	(8ee\L	<
!	!	!	!LO:HP:Y=30
8D-\	.	8ddd-\	[ >
8G\J	.	8ee\J)	]
!!LO:PB:g=dukas
!!LO:LB:gg=z16
=130	=130	=130	=130
8AA-/L	.	8r	.
!	!	!	!LO:HP:Y=40:dash
!	!	!	!LO:TX:Y=35
8F/	<yy	(8ee\L	<X
8C/	(	8gg\	(
8F/J	(	8ff\J)	(
8EE/L	(	8r	(
8E/	(	(8ff\L	(
8C/	(	8aa-\	(
8E/J	(	8gg\J)	(
=131	=131	=131	=131
8FF/L	(	8r	(
8F/	(	(8gg\L	(
8C/	(	8bb-\	(
8F/J	(	8aa-\J)	(
8GG/L	(	8r	(
8G/	(	(8aa\L	(
8C/	(	8ccc\	(
8G/J	[yy	8bb-\J)	[X
=132	=132	=132	=132
4AA-/	ffyy	8r	.
!	!	!	!LO:DY:X=-10:Y=35
.	.	(8ccc\L	ff
!	!	!LO:TX:i:Y=35:t=sempre legato	!
2Cz/	.	8fff\	.
.	.	8eee-\J	.
.	.	8ddd-\L	.
.	.	8ccc\	.
4F\	.	8bb-\	.
.	.	8aa-\J	.
=133	=133	=133	=133
4BB-/	.	8gg\L	.
.	.	8ff\	.
2D-z/	.	8ee-\	.
.	.	8dd-\J	.
.	.	8cc\L	.
.	.	8b-\	.
4G\	.	8a-\	.
.	.	8g\J)	.
=134	=134	=134	=134
!	!	!LO:S:a	!
4C\	.	(8f/L	.
.	.	8e/	.
!LO:DY:X=-10	!	!	!
2Fz\	.	8d-/	.
.	.	8c/J	.
.	.	8B/L	.
.	.	8c/	.
4A-\	.	8B/	.
.	.	8c/J	.
!!LO:LB:g=dukas
=135	=135	=135	=135
!	!	!	!LO:DY:X=-8:Y=45
(4B-\	.	8B/L	pp
.	.	8c/	.
4G\	.	8d-/	.
.	.	8c/J	.
4E\	.	8B/L	.
.	.	8c/	.
4BB-/)	.	8d-/	.
.	.	8c/J)	.
=136	=136	=136	=136
4AA-/	.	8r	.
!	!	!	!LO:DY:X=-10:Y=35
.	.	(8ccc\L	ff
2Cz/	.	8fff\	.
.	.	8eee-\J	.
.	.	8ddd-\L	.
.	.	8ccc\	.
4F\	.	8bb-\	.
.	.	8aa-\J	.
=137	=137	=137	=137
4BB-/	.	8gg\L	.
.	.	8ff\	.
2D-z/	.	8ee-\	.
.	.	8dd-\J	.
.	.	8cc\L	.
.	.	8b-\	.
4G\	.	8a-\	.
.	.	8g\J	.
=138	=138	=138	=138
4C\	.	8f/L	.
.	.	8e/	.
!LO:DY:X=-10	!	!	!
2Fz\	.	8d-/	.
.	.	8c/J	.
.	.	8B/L	.
.	.	8c/	.
4A-\	.	8B/	.
.	.	8c/J)	.
=139	=139	=139	=139
!	!	!LO:S:a	!LO:DY:Y=50
4r	.	(8B/L	p
.	.	8c/	.
4CC/	ppyy	8d-/	.
.	.	8c/J	.
4CC/	.	8c/L	.
!	!	!S-	!
.	.	8B-/j	.
4CC/	.	8A-/j	.
.	.	8G/Jj	.
!!LO:LB:g=dukas
!!LO:LB:gg=z16
=140	=140	=140	=140
4FF\	.	4F/)j	.
!	!	!S0	!
4F\	.	4r	.
.	.	(B8q/	.
!	!	!LO:TX:i:t=con espress.:Y=20:X=30	!
4r	.	(4.a-/)	>yy
4D-'\ 4F'\ 4A-'\ 4B'\	.	.	)
.	.	8g/	]yy
=141	=141	=141	=141
4r	.	2f/)	.
4C'\ 4F'\ 4A-'\ 4c'\	.	.	.
!	!	!LO:S:b	!
4r	.	(4.e/	.
4C'\ 4G'\ 4B-X'\	.	.	.
.	.	8cc\)	.
=142	=142	=142	=142
4r	.	(4ccz\	.
4F'\ 4A-'\	.	4f/)	.
.	.	(B8q/	.
4r	.	(4.a-/)	>yy
4D-'\ 4F'\ 4A-'\ 4B'\	.	.	)
.	.	8g/	]yy
=143	=143	=143	=143
4r	.	2f/)	.
4C'\ 4F'\ 4A-'\ 4c'\	.	.	.
!	!	!LO:S:b	!
4r	.	(4.en/	.
4C'\ 4G'\ 4B-X'\	.	.	.
.	.	8cc\)	.
=144	=144	=144	=144
4r	.	(4ccz\	.
4F'\ 4A-'\	.	4f/)	.
*clefG2	*clefG2	*	*
.	.	(b8q/	.
4r	.	(4.aa-\)	>yy
4d-'/ 4f'/ 4a-'/ 4b'/	.	.	)
.	.	8gg\	]yy
=145	=145	=145	=145
4r	.	2ff\)	.
4c'/ 4f'/ 4a-'/ 4cc'/	.	.	.
4r	<yy	(4.ee\	<yy
*clefF4	*clefF4	*	*
4B-'\ 4c'\ 4g'\	(	.	(
.	[yy	8ccc\)	[yy
!!LO:LB:g=dukas
!!LO:LB:gg=z16
=146	=146	=146	=146
!LO:S:b	!	!	!
(1A 1c 1f	ffyy	1cc 1ee-X (1ccc	ff
=147	=147	=147	=147
4B-\) 4d-\ 4f\	.	4b-\ 4dd-\ 4ff\)	.
4r	.	4r	.
4r	.	4r	.
8r	.	8r	.
8B-\ 8d-\ 8f\	.	8b-\ 8dd-\ 8bb-\	.
=148	=148	=148	=148
!LO:S:b	!	!	!
(1G 1B- 1e-	.	1b- 1dd- (1bb-	ff
=149	=149	=149	=149
4A-\) 4c\ 4e-\	.	4a-\ 4cc\ 4ee-\)	.
4r	.	4r	.
4r	.	4r	.
!	!	!LO:DY:X=4:Y=30	!
4F'zy\ 4d-'zy\	.	4a-'z\ 4cc'z\ 4aa-'z\	.
=150	=150	=150	=150
4G'\ 4d-'\	.	4g'\ 4b-'\ 4dd-'\	.
!	!	!LO:DY:X=4:Y=30	!
4E'zy\ 4c'zy\	.	4g'z\ 4b-'z\ 4gg'z\	.
4F'\ 4c'\	.	4f'\ 4a-'\ 4cc'\	.
!	!	!LO:DY:X=4:Y=30	!
4D-'zy\ 4d-'zy\	.	4f'z\ 4a-'z\ 4ff'z\	.
=151	=151	=151	=151
!	!	!	!LO:DY:X=4:z=12
4BB-'\ 4D-'\ 4G'\ 4B-'\	.	4f'\ 4g'\ 4dd-'\ 4ff'\	ff
4r	.	4r	.
4C'\ 4E'\ 4G'\ 4c'\	.	4e'\ 4g'\ 4b-'\ 4cc'\ 4ee'\	.
4r	.	4r	.
=152	=152	=152	=152
4FF'/ 4AA-'/ 4C'/ 4F'/	.	4f'\ 4a-'\ 4cc'\ 4ff'\	.
4r	.	4r	.
4r	.	4r	.
==:|!	==:|!	==:|!	==:|!
*-	*-	*-	*-
!!!SMS: Durand 1915, plates 9327/9328, Paul Dukas, ed.
!!!ENC: Craig Stuart Sapp
!!!END: 2004/04/05/
!!!EEV: 2011/01/30/
!!!EED: Craig Stuart Sapp
!!!ONB: Notes proofread; Dynamics proofread
!!hum2abc: --spacing 2.0 -s 0.7
!!hum2muse: --sc "Op. 2, No. 1 (1793-5)"
!!muse2ps: T^Sonata no. 1 in F minor^C^L. van Beethoven\nop. 2/1^
!!muse2ps: v115,130jI200S100
!!muse2ps: =z16=c95F
!!muse2ps: =z14=F
